public/speed-up-down.svg

<?xml version="1.0" encoding="UTF-8" standalone="no"?>
<!DOCTYPE svg PUBLIC "-//W3C//DTD SVG 1.1//EN" "http://www.w3.org/Graphics/SVG/1.1/DTD/svg11.dtd">
<!-- Created with Vectornator (http://vectornator.io/) -->
<svg height="100%" stroke-miterlimit="10" style="fill-rule:nonzero;clip-rule:evenodd;stroke-linecap:round;stroke-linejoin:round;" version="1.1" viewBox="0 0 24 24" width="100%" xml:space="preserve" xmlns="http://www.w3.org/2000/svg" xmlns:vectornator="http://vectornator.io" xmlns:xlink="http://www.w3.org/1999/xlink">
<defs/>
<g id="Untitled" vectornator:layerName="Untitled">
<path d="M11.8845 6.64694L11.8845 17.353C11.8845 18.5743 11.8845 19.1849 11.6341 19.4986C11.4165 19.7714 11.0863 19.9301 10.7372 19.9297C10.3359 19.9293 9.85915 19.5478 8.90542 18.7849L4.00388 14.8636C2.78029 13.8847 2.1685 13.3954 1.947 12.804C1.7528 12.2856 1.7528 11.7144 1.947 11.1959C2.1685 10.6046 2.78029 10.1152 4.00389 9.13634L8.90542 5.21512C9.85915 4.45217 10.3359 4.07069 10.7372 4.07027C11.0863 4.06989 11.4165 4.22857 11.6341 4.50133C11.8845 4.81497 11.8845 5.42563 11.8845 6.64694ZM22.1987 6.64694L22.1987 17.353C22.1987 18.5743 22.1987 19.1849 21.9482 19.4986C21.7306 19.7714 21.4005 19.9301 21.0514 19.9297C20.65 19.9293 20.1733 19.5478 19.2196 18.7849L14.3181 14.8636C13.0945 13.8847 12.4826 13.3954 12.2612 12.804C12.0669 12.2856 12.0669 11.7144 12.2612 11.1959C12.4826 10.6046 13.0945 10.1152 14.3181 9.13634L19.2196 5.21512C20.1733 4.45217 20.65 4.07069 21.0514 4.07027C21.4005 4.06989 21.7306 4.22857 21.9482 4.50133C22.1987 4.81497 22.1987 5.42563 22.1987 6.64694Z" fill="none" opacity="1" stroke="#000000" stroke-linecap="round" stroke-linejoin="round" stroke-width="2.4" vectornator:layerName="path"/>
</g>
</svg>

<svg xmlns="http://www.w3.org/2000/svg" xmlns:vectornator="http://vectornator.io" xml:space="preserve" stroke-miterlimit="10" style="fill-rule:nonzero;clip-rule:evenodd;stroke-linecap:round;stroke-linejoin:round" viewBox="0 0 24 24"><g vectornator:layerName="Untitled"><path vectornator:layerName="path" fill="none" stroke="#000" stroke-width="2.4" d="M11.884 6.647v10.706c0 1.221 0 1.832-.25 2.146a1.146 1.146 0 0 1-.897.43c-.401 0-.878-.381-1.832-1.144l-4.901-3.921c-1.224-.98-1.835-1.469-2.057-2.06a2.292 2.292 0 0 1 0-1.608c.221-.591.833-1.08 2.057-2.06l4.901-3.92c.954-.764 1.43-1.145 1.832-1.146.35 0 .68.159.897.431.25.314.25.925.25 2.146Zm10.315 0v10.706c0 1.221 0 1.832-.25 2.146a1.145 1.145 0 0 1-.898.43c-.401 0-.878-.381-1.831-1.144l-4.902-3.921c-1.223-.98-1.835-1.469-2.057-2.06a2.291 2.291 0 0 1 0-1.608c.222-.591.834-1.08 2.057-2.06l4.902-3.92c.953-.764 1.43-1.145 1.831-1.146.35 0 .68.159.897.431.25.314.25.925.25 2.146Z"/></g></svg>
